icon-themes/sifr_svg/cmd/sc_showtrackedchanges.svg

<svg viewBox="0 0 16 16" xmlns="http://www.w3.org/2000/svg"><path d="m2 0v15h12v-9-3l-3-3h-2zm2 2h4 1 1l2 2v2 7h-3v-1h1v-2.4082031c1.237649-.5619126 1.93188-1.6630031 1.958984-3.0234375.0004-.023708-.0059-.044802-.0059-.068359s.0063-.044651.0059-.068359c-.03937-1.9760687-1.456927-3.435754-3.9569277-3.435754-2.5 0-3.9216719 1.4596853-3.9610407 3.4357532-.0004723.023708.00593.044802.00586.068359.00007.023557-.00633.044651-.00586.068359.0271037 1.3604352.7213351 2.4615257 1.9589844 3.0234383v2.4082031h1v1h-3zm4 2c1.5 0 2.907074.4558624 2.958984 2.4316406.0006.023883-.0058.044741-.0059.068359.0001.023618.0065.044476.0059.068359-.05191 1.975779-1.458984 2.4316414-2.958984 2.4316414s-2.9070734-.455862-2.9589844-2.4316406c-.00063-.023883.005778-.0447414.0058594-.0683594-.0000814-.0236178-.0064869-.044476-.0058594-.0683594.0519106-1.9757782 1.4589844-2.4316406 2.9589844-2.4316406zm-2 2v1h1v-1zm1 1v1h2v-1zm2 0h1v-1h-1z" fill="#555753"/></svg>

<?xml version="1.0" encoding="UTF-8" standalone="no"?>
<svg
   xmlns:dc="http://purl.org/dc/elements/1.1/"
   xmlns:cc="http://creativecommons.org/ns#"
   xmlns:rdf="http://www.w3.org/1999/02/22-rdf-syntax-ns#"
   xmlns:svg="http://www.w3.org/2000/svg"
   xmlns="http://www.w3.org/2000/svg"
   xmlns:sodipodi="http://sodipodi.sourceforge.net/DTD/sodipodi-0.dtd"
   xmlns:inkscape="http://www.inkscape.org/namespaces/inkscape"
   viewBox="0 0 16 16"
   version="1.1"
   id="svg8"
   sodipodi:docname="sc_showtrackedchanges.svg"
   inkscape:version="0.92.4 (unknown)">
  <metadata
     id="metadata14">
    <rdf:RDF>
      <cc:Work
         rdf:about="">
        <dc:format>image/svg+xml</dc:format>
        <dc:type
           rdf:resource="http://purl.org/dc/dcmitype/StillImage" />
        <dc:title></dc:title>
      </cc:Work>
    </rdf:RDF>
  </metadata>
  <defs
     id="defs12" />
  <sodipodi:namedview
     pagecolor="#ffffff"
     bordercolor="#666666"
     borderopacity="1"
     objecttolerance="10"
     gridtolerance="10"
     guidetolerance="10"
     inkscape:pageopacity="0"
     inkscape:pageshadow="2"
     inkscape:window-width="1366"
     inkscape:window-height="706"
     id="namedview10"
     showgrid="true"
     inkscape:zoom="166.8772"
     inkscape:cx="7.6717073"
     inkscape:cy="12.417095"
     inkscape:window-x="0"
     inkscape:window-y="0"
     inkscape:window-maximized="1"
     inkscape:current-layer="svg8">
    <inkscape:grid
       type="xygrid"
       id="grid827" />
  </sodipodi:namedview>
  <path
     style="fill:#555753;fill-opacity:1"
     d="M 2,0 V 15 H 14 V 6 3 L 11,0 H 9 Z m 2,2 h 4 1 1 l 2,2 v 2 7 H 9 v -1 h 1 V 9.5917969 c 1.237649,-0.5619126 1.93188,-1.6630031 1.958984,-3.0234375 4e-4,-0.023708 -0.0059,-0.044802 -0.0059,-0.068359 0,-0.023557 0.0063,-0.044651 0.0059,-0.068359 -0.03937,-1.9760687 -1.456927,-3.435754 -3.9569277,-3.435754 -2.5,0 -3.9216719,1.4596853 -3.9610407,3.4357532 -4.723e-4,0.023708 0.00593,0.044802 0.00586,0.068359 7e-5,0.023557 -0.00633,0.044651 -0.00586,0.068359 C 4.0681193,7.9287938 4.7623507,9.0298843 6,9.5917969 V 12 h 1 v 1 H 4 Z m 4,2 c 1.5,0 2.907074,0.4558624 2.958984,2.4316406 6e-4,0.023883 -0.0058,0.044741 -0.0059,0.068359 10e-5,0.023618 0.0065,0.044476 0.0059,0.068359 C 10.907074,8.5441376 9.5,9 8,9 6.5,9 5.0929266,8.544138 5.0410156,6.5683594 5.0403856,6.5444764 5.0467936,6.523618 5.046875,6.5 5.0467936,6.4763822 5.0403881,6.455524 5.0410156,6.4316406 5.0929262,4.4558624 6.5,4 8,4 Z M 6,6 V 7 H 7 V 6 Z M 7,7 V 8 H 9 V 7 Z m 2,0 h 1 V 6 H 9 Z"
     id="path2"
     inkscape:connector-curvature="0"
     sodipodi:nodetypes="ccccccccccccccccccccscscccccccccscccsccssccccccccccccccc" />
</svg>
